!!!OTL: Zhijian qingsong bujian hua
!!!ARE: Asia, China,ÿGansu, Jiuquan
!! I, 135
!!!SCT: C1419
!!!YEM: Copyright 1995, estate of Helmut Schaffrath.
**kern
*ICvox
*Ivox
*M2/4
*k[f#]
*G:
{4ddd
8.bb
16aa
=1
8bb
4bb
8r
=2
4aa
8.bb
16ddd
=3
8.bb
16aa
8.gg
16ee}
=4
{4.gg
8aa
=5
8bb
8bb
8.gg
16bb
=6
8aa
8gg
4ee
=7
4.dd
8r}
=8
{8dd
8b
4dd
=9
8ee
8gg
4r
=10
8gg
8gg
8.ee
16dd
=11
4.b
8r}
=12
{8aa
4aa
8ddd
=13
4bb
4gg
=14
8ee
8ee
4gg
=15
4.gg
8r}
==
!!!AGN: Wuge, Yangge
!!!ONB: ESAC (Essen Associative Code) Database: HUANG
!!!AMT: simple duple
!!!AIN: vox
!!!EED: Helmut Schaffrath
!!!EEV: 1.0
*-
!!!OTL: Wang lang po
!!!ARE: Asia, China,ÿYunnan, Dongchuan
!! II, 48
!!!SCT: C1482
!!!YEM: Copyright 1995, estate of Helmut Schaffrath.
**kern
*ICvox
*Ivox
*M2/4
*k[]
*C:
{8cc
8a
4a
=1
4.dd
16cc
16a
=2
8cc
8dd
4dd}
=3
{8dd
8dd
8a
8f#
=4
4.g
16cc
16b
=5
8a
16cc
16b
8g
16e
16d
=6
2d}
=7
{8d
8d
16d
16f#
8g
=8
8g
8a
16a
16cc
8dd}
=9
{8dd
8dd
8a
8f#
=10
4.g
16cc
16b
=11
8a
16cc
16b
8g
16e
16d
=12
2d}
==
!!!AGN: Shange. Pan qinren
!!!AMT: simple duple
!!!AIN: vox
!!!EED: Helmut Schaffrath
!!!EEV: 1.0
*-
